!!!COM: Schiørring, Niels
!!!CDT: 1743-1798
!!!OPR@@DA: Choral-Bog
!!!ONM: 81
!!!OTL@@DA: D Jeſu! for din Pine
**kern	**fb	**kern	**kern	**kern	**kern	**kern	**kern	**kern
*part6	*part6	*part6	*part5	*part5	*part4	*part3	*part2	*part1
*staff8	*	*staff7	*staff6	*staff5	*staff4	*staff3	*staff2	*staff1
*clefF4	*	*clefC1	*clefF4	*clefC1	*clefF4	*clefC4	*clefC3	*clefC1
*mclefF4	*	*mclefG2	*mclefF4	*mclefG2	*mclefF4	*mclefGv2	*mclefG2	*mclefG2
*k[b-]	*	*k[b-]	*k[b-]	*k[b-]	*k[b-]	*k[b-]	*k[b-]	*k[b-]
*F:	*	*F:	*F:	*F:	*F:	*F:	*F:	*F:
*M3/2	*	*M3/2	*M3/2	*M3/2	*M3/2	*M3/2	*M3/2	*M3/2
*MM180	*	*MM180	*MM180	*MM180	*MM180	*MM180	*MM180	*MM180
*	*above	*	*	*	*	*	*	*
*	*slash	*	*	*	*	*	*	*
*	*	*	*^	*^	*	*	*	*
=1	=1	=1	=1	=1	=1	=1	=1	=1	=1	=1
2G	.	2g	2B-	2G	2g	2d	2G	2B-	2d	2g
=2	=2	=2	=2	=2	=2	=2	=2	=2	=2	=2
1B-	6	1g	1d	1B-	1g	1d	1B-	1d	1d	1g
2F#X	6	2a	2A	2F#X	2a	2d	2F#X	2A	2d	2a
=3	=3	=3	=3	=3	=3	=3	=3	=3	=3	=3
1G	.	1b-	1G	1G	1b-	1d	1G	1G	1d	1b-
2C	-	2cc	2G	2C	2cc	2e-X	2C	2G	2e-X	2cc
=4	=4	=4	=4	=4	=4	=4	=4	=4	=4	=4
1.D	4	1.a	1G	1.D	1.a	1.d	1.D	(1G	1.d	1.a
.	#	.	2F#X	.	.	.	.	4F#X	.	.
.	.	.	.	.	.	.	.	4c)	.	.
=5	=5	=5	=5	=5	=5	=5	=5	=5	=5	=5
*	*	*	*	*	*	*^	*	*	*	*
1GG	.	1g	1G	1GG	1g	1d	1B-\	1GG	1B-	1d	1g
*	*	*	*	*	*	*v	*v	*	*	*	*
2BB-	.	2dd	2fni>	2BB-	2dd	2b-	2BB-	2fi	2d	2dd
=6	=6	=6	=6	=6	=6	=6	=6	=6	=6	=6
1.C	9 n	1dd	1e>	1C	1dd	1g	1C	1e	1g	1dd
.	8	2cc	2e>	2C	2cc	2g	2C	2e	2g	2cc
=7	=7	=7	=7	=7	=7	=7	=7	=7	=7	=7
1D	6	1b-	1d	1D	1b-	1f	1D	1d	1f	1b-
2E	6	2g	2c	2E	2g	2g	2E	2c	2g	2g
=8	=8	=8	=8	=8	=8	=8	=8	=8	=8	=8
1F	.	1a	1c	1F	1a	1f	1F	1c	1f	1a
2c	#4|	2a	2d>	2c	2a	2f#X	2c	2d	2f#X	2a
=9	=9	=9	=9	=9	=9	=9	=9	=9	=9	=9
1B-	6	1dd	1d>	1B-	1dd	1g	1B-	1d	1g	1dd
2A	#6\	2cc	2d>	2A	2cc	2f#X	2A	2d	2f#X	2cc
=10	=10	=10	=10	=10	=10	=10	=10	=10	=10	=10
1G	.	1b-	1d>	1G	1b-	1g	1G	1d	1g	1b-
2C	n	2cc	2e>	2C	2cc	2g	2C	2e	2g	2cc
=11	=11	=11	=11	=11	=11	=11	=11	=11	=11	=11
1C#X	6	1.a	1.A	1C#X	1.a	1e	(1C#X	(1e	1.e	1.a
2AA	#	.	.	2AA	.	2c#X	2AA)	2c#X)	.	.
=12	=12	=12	=12	=12	=12	=12	=12	=12	=12	=12
1D	.	1f	1A	1D	1f	1d	1D	1A	1d	1f
2BB-	6	2g	2G	2BB-	2g	2d	2BB-	2d	2d	2g
=13	=13	=13	=13	=13	=13	=13	=13	=13	=13	=13
1GG	.	1b-	1G	1GG	1b-	1d	1GG	1d	1g	1b-
2E-X	.	2b-	2G	2E-X	2b-	2e-X	2E-X	2e-X	2g	2b-
=14	=14	=14	=14	=14	=14	=14	=14	=14	=14	=14
1C	-	1cc	1G	1C	1cc	1e-X	1C	1e-X	1g	1cc
2D	#	2a	2F#X	2D	2a	2d	2D	2d	2f#X	2a
=15	=15	=15	=15	=15	=15	=15	=15	=15	=15	=15
*	*	*	*	*	*	*^	*	*	*	*
1GG	.	1g	1G	1GG	1g	1d	1B-\	1GG	1B-	1g	1g
*	*	*	*v	*v	*	*	*	*	*	*	*
*	*	*	*	*v	*v	*v	*	*	*	*
==	==	==	==	==	==	==	==	==
*-	*-	*-	*-	*-	*-	*-	*-	*-
!!!system-decoration: {(s1,s2,s3,s4)}{(s5,s6)}{(s7,s8)}
!!!RDF**kern: i = editorial accidental, paren
!!!RDF**kern: > = above
!!!RDF**kern: < = below
!!!AGN: chorale
!!!EED: Derek Remeš
!!!EED2: Victor Phan
!!!END: 2023/11/28
!!!ENC: Wolfgang Drescher
!!!EEV: 2023/12/12
!!!title: @{ONM}. @{OTL}
!!!verovio: mnumInterval 1